domains/misc/badssl.com/front-page-icons/bad-white.svg

<svg height="32" viewBox="0 0 32 32" width="32" xmlns="http://www.w3.org/2000/svg"><g fill="none" fill-rule="evenodd" transform=""><path d="m0 0h32v32h-32z" opacity=".2"/><path d="m4 27h25l-12.5-22zm14-3h-3v-3h3zm0-5h-3v-6h3z" fill="#fff"/></g></svg>

<?xml version="1.0" encoding="UTF-8" standalone="no"?>
<svg width="32px" height="32px" viewBox="0 0 32 32" version="1.1" xmlns="http://www.w3.org/2000/svg" xmlns:xlink="http://www.w3.org/1999/xlink">
    <!-- Generator: Sketch 39.1 (31720) - http://www.bohemiancoding.com/sketch -->
    <title>https_invalid@1x</title>
    <desc>Created with Sketch.</desc>
    <defs></defs>
    <g id="Page" stroke="none" stroke-width="1" fill="none" fill-rule="evenodd">
        <g id="Non-Touch-Summary-Icons" transform="translate(-192.000000, -192.000000)">
            <g id="Icon" transform="translate(192.000000, 192.000000)">
                <rect id="Layout" opacity="0.2" x="0" y="0" width="32" height="32"></rect>
                <path d="M4,27 L29,27 L16.5,5 L4,27 L4,27 Z M18,24 L15,24 L15,21 L18,21 L18,24 L18,24 Z M18,19 L15,19 L15,13 L18,13 L18,19 L18,19 Z" fill="#FFFFFF"></path>
            </g>
        </g>
    </g>
</svg>
